jsapp/svg-icons/link-off.svg

<svg height="40" viewBox="0 0 40 40" width="40" xmlns="http://www.w3.org/2000/svg"><path d="m16 26h-1c-.552 0-1 .448-1 1v3h-2v-3c0-.552-.448-1-1-1h-1v-1c0-1.654 1.346-3 3-3s3 1.346 3 3zm-3-9.5c.551 0 1 .449 1 1s-.449 1-1 1-1-.449-1-1 .449-1 1-1zm5 8.5c0-2.305-1.577-4.231-3.702-4.808 1.003-.485 1.702-1.504 1.702-2.692 0-1.654-1.346-3-3-3s-3 1.346-3 3c0 1.188.699 2.207 1.702 2.692-2.125.577-3.702 2.503-3.702 4.808v2c0 .552.448 1 1 1h1v3c0 .552.448 1 1 1h4c.552 0 1-.448 1-1v-3h1c.552 0 1-.448 1-1zm2 5c0-1.104.897-2 2-2s2 .896 2 2zm3.754-3.577c.751-.546 1.246-1.425 1.246-2.423h-2c0 .551-.449 1-1 1s-1-.449-1-1h-2c0 .998.495 1.877 1.246 2.423-1.325.652-2.246 2.004-2.246 3.577v1c0 .552.448 1 1 1h6c.552 0 1-.448 1-1v-1c0-1.573-.921-2.925-2.246-3.577zm6.246-7.423h-6v-5h6zm-3-9c1.103 0 2 .896 2 2h-4c0-1.104.897-2 2-2zm4 2c0-2.206-1.794-4-4-4s-4 1.794-4 4c-.552 0-1 .448-1 1v7c0 .552.448 1 1 1h8c.552 0 1-.448 1-1v-7c0-.552-.448-1-1-1zm-3 4c0 .553-.448 1-1 1s-1-.447-1-1c0-.552.448-1 1-1s1 .448 1 1" fill-rule="evenodd"/></svg>

<?xml version="1.0" encoding="UTF-8"?>
<svg width="40px" height="40px" viewBox="0 0 40 40" version="1.1" xmlns="http://www.w3.org/2000/svg" xmlns:xlink="http://www.w3.org/1999/xlink">
    <!-- Generator: Sketch 50.2 (55047) - http://www.bohemiancoding.com/sketch -->
    <title>Icons/link-off</title>
    <desc>Created with Sketch.</desc>
    <defs>
        <path d="M16,26 L15,26 C14.448,26 14,26.448 14,27 L14,30 L12,30 L12,27 C12,26.448 11.552,26 11,26 L10,26 L10,25 C10,23.346 11.346,22 13,22 C14.654,22 16,23.346 16,25 L16,26 Z M13,16.5 C13.551,16.5 14,16.949 14,17.5 C14,18.051 13.551,18.5 13,18.5 C12.449,18.5 12,18.051 12,17.5 C12,16.949 12.449,16.5 13,16.5 L13,16.5 Z M18,25 C18,22.695 16.423,20.769 14.298,20.192 C15.301,19.707 16,18.688 16,17.5 C16,15.846 14.654,14.5 13,14.5 C11.346,14.5 10,15.846 10,17.5 C10,18.688 10.699,19.707 11.702,20.192 C9.577,20.769 8,22.695 8,25 L8,27 C8,27.552 8.448,28 9,28 L10,28 L10,31 C10,31.552 10.448,32 11,32 L15,32 C15.552,32 16,31.552 16,31 L16,28 L17,28 C17.552,28 18,27.552 18,27 L18,25 Z M20,30 C20,28.896 20.897,28 22,28 C23.103,28 24,28.896 24,30 L20,30 Z M23.754,26.423 C24.505,25.877 25,24.998 25,24 L23,24 C23,24.551 22.551,25 22,25 C21.449,25 21,24.551 21,24 L19,24 C19,24.998 19.495,25.877 20.246,26.423 C18.921,27.075 18,28.427 18,30 L18,31 C18,31.552 18.448,32 19,32 L25,32 C25.552,32 26,31.552 26,31 L26,30 C26,28.427 25.079,27.075 23.754,26.423 L23.754,26.423 Z M30,19 L24,19 L24,14 L30,14 L30,19 Z M27,10 C28.103,10 29,10.896 29,12 L25,12 C25,10.896 25.897,10 27,10 L27,10 Z M31,12 C31,9.794 29.206,8 27,8 C24.794,8 23,9.794 23,12 C22.448,12 22,12.448 22,13 L22,20 C22,20.552 22.448,21 23,21 L31,21 C31.552,21 32,20.552 32,20 L32,13 C32,12.448 31.552,12 31,12 L31,12 Z M28,16 C28,16.553 27.552,17 27,17 C26.448,17 26,16.553 26,16 C26,15.448 26.448,15 27,15 C27.552,15 28,15.448 28,16" id="path-1"></path>
    </defs>
    <g id="Icons/link-off" stroke="none" stroke-width="1" fill="none" fill-rule="evenodd">
        <mask id="mask-2" fill="white">
            <use xlink:href="#path-1"></use>
        </mask>
        <use id="Mask" fill="#000000" xlink:href="#path-1"></use>
    </g>
</svg>
